!!!!SEGMENT: pl-kk--kk-i-121--001_anonim--alleluia-ave-maria-1mum.krn
!!!cenid: 16xx:1349
!!!COM: Anonim
!!!COM-rismID: pe30004985
!!!CDT:
!!!CNT:
!!!OTL: Alleluia Ave Maria 1mum
!!!PDT:
!!!AGN: Sacred
!!!SMS-siglum: PL-Kk
!!!SMS-shelfmark: Kk.I.121
!!!SMS-shelfwork: 001 W
!!!SMS-variant:
!!!SMS-altvar:
!!!NIFC-rismSourceID: 1001153677
!!!NIFC-islandoraID: pl-kk:3460
!!!URL-pdf-islandora: https://repozytorium.nifc.pl/islandora/object/pl-kk%3A3460/datastream/PDF/view
!!!URL-scan: https://polish.musicsources.pl/pl/lokalizacje/galeria/rekopisy/5754 @EN{Scan on Polish Music Sources Website} @PL{Skany w portalu Dziedzictwo Muzyki Polskiej w otwartym dostępie}
!!!ONB-nifc: UWAGA: w zbiorze 1. Alleluia Ave Maria 1mum, 2. Alleluia Ave Maria 2dum (Virga Jesse floruit są częścią utworów)
!!!AIN: 1 alto 2 empty 2 tenor
!!!key:
**kern	**text	**kern	**text	**kern	**text	**kern	**text	**kern	**text
*part5	*part5	*part4	*part4	*part3	*part3	*part2	*part2	*part1	*part1
*staff5	*staff5	*staff4	*staff4	*staff3	*staff3	*staff2	*staff2	*staff1	*staff1
*Iempty	*	*Iempty	*	*Itenor	*	*Ialto	*	*Itenor	*
*I"Baſso Ripieno.	*	*I"Baſso.	*	*I"Tenore	*	*I"Alto.	*	*I"Canto. in Tenore.	*
*I'b rip	*	*I'B	*	*I'T	*	*I'A	*	*I'C/T	*
*clefF4	*	*clefF4	*	*clefC4	*	*clefC3	*	*clefC4	*
*k[]	*	*k[]	*	*k[]	*	*k[]	*	*k[]	*
*d:	*	*d:	*	*d:	*	*d:	*	*d:	*
*M2/1	*	*M2/1	*	*M2/1	*	*M2/1	*	*M2/1	*
*met(C|)	*	*met(C|)	*	*met(C|)	*	*met(C|)	*	*met(C|)	*
=1-	=1-	=1-	=1-	=1-	=1-	=1-	=1-	=1-	=1-
!	!	!	!	!	!	!LO:TX:t=P:problem=kreska pseudotaktowa	!	!LO:TX:t=P:problem=kreska pseudotaktowa	!
00r	.	00r	.	1D	Al-	1r	.	00r	.
.	.	.	.	1A	-le-	1A	Al-	.	.
=2-	=2-	=2-	=2-	=2-	=2-	=2-	=2-	=2-	=2-
!	!	!	!	!	!	!LO:TX:t=P:problem=kreska pseudotaktowa	!	!	!
.	.	.	.	1E	.	1e	-le-	.	.
*	*	*	*	*lig	*	*	*	*	*
.	.	.	.	1G	.	2.B/	.	.	.
!	!	!	!	!	!	!LO:TX:t=P:problem=kreska pseudotaktowa	!	!	!
.	.	.	.	.	.	4c/	.	.	.
=3-	=3-	=3-	=3-	=3-	=3-	=3-	=3-	=3-	=3-
!LO:TX:t=P:problem=kreska pseudotaktowa	!	!LO:TX:t=P:problem=kreska pseudotaktowa	!	!	!	!	!	!	!
1r	.	1r	.	1F	.	1d	.	(1D	Al-
*	*	*	*	*Xlig	*	*	*	*	*
!	!	!	!	!	!	!	!	!LO:TX:t=P:problem=kreska pseudotaktowa	!
1AA	Al-	1AA	Al-	0E	-lu-	1c	.	1A)	-le-
=4-	=4-	=4-	=4-	=4-	=4-	=4-	=4-	=4-	=4-
1E	-le-	1E	-le-	.	.	0B	-lu-	1E	.
!	!	!	!	!LO:TX:t=P:problem=kreska pseudotaktowa	!	!	!	!LO:TX:t=P:problem=kreska pseudotaktowa	!
2.BB/	-lu-	2.BB/	-lu-	1D	-ia	.	.	1G	.
!LO:TX:t=P:problem=kreska pseudotaktowa	!	!LO:TX:t=P:problem=kreska pseudotaktowa	!	!	!	!	!	!	!
4C/	.	4C/	.	.	.	.	.	.	.
=5-	=5-	=5-	=5-	=5-	=5-	=5-	=5-	=5-	=5-
*2\right	*	*	*	*	*	*	*	*	*
!LO:TX:t=P:global:problem=oddech/cezura na różnej wysokości	!	!LO:TX:t=P:global:problem=oddech/cezura na różnej wysokości	!	!	!	!LO:TX:t=P:global:problem=oddech/cezura na różnej wysokości	!	!	!
2D,<\	-ia	2D,</	-ia	2r	.	2A,</	-ia	1F	-lu-
*	*ij	*	*ij	*2\right	*ij	*2\right	*ij	*	*
!	!	!LO:TX:t=P:problem=kreska pseudotaktowa	!	!LO:TX:t=P:problem=kreska pseudotaktowa	!	!LO:TX:t=P:problem=kreska pseudotaktowa	!	!	!
2D\	Al-	2D/	Al-	2A\	Al-	2d\	Al-	.	.
2AA/	-le-	2AA/	-le-	2A\	-le-	2d\	-le-	1E	.
!	!	!	!	!	!	!LO:TX:t=P:problem=kreska pseudotaktowa	!	!	!
2AA/	-lu-	2AA/	-lu-	2A\	-lu-	2c#X\	-lu-	.	.
=6-	=6-	=6-	=6-	=6-	=6-	=6-	=6-	=6-	=6-
0D;	-ia	0D;	-ia	0A;	-ia	0d;	-ia	0D;	-ia.
*	*Xij	*	*Xij	*	*Xij	*	*Xij	*	*
=7||-	=7||-	=7||-	=7||-	=7||-	=7||-	=7||-	=7||-	=7||-	=7||-
*M2/1	*	*M2/1	*	*M2/1	*	*M2/1	*	*M2/1	*
*met(C|)	*	*met(C|)	*	*met(C|)	*	*met(C|)	*	*met(C|)	*
4AA/	A-	4AA/	A-	2c\	A-	2r	.	1.A	A-
4BB/	.	4BB/	.	.	.	.	.	.	.
4C/	.	4C/	.	2c\	-ve	1e	A-	.	.
!	!	!LO:TX:t=P:problem=kreska pseudotaktowa	!	!	!	!	!	!	!
4D/	.	4D/	.	.	.	.	.	.	.
*	*	*2\right	*	*	*	*	*	*	*
2E\	.	2E\	.	2Bn\	Ma-	.	.	.	.
!LO:TX:t=P:problem=kreska pseudotaktowa	!	!LO:TX:t=P:problem=kreska pseudotaktowa	!	!	!	!LO:TX:t=P:problem=kreska pseudotaktowa	!	!LO:TX:t=P:problem=kreska pseudotaktowa	!
2E\	-ve	2E\	-ve	2.e\	-ri-	2e\	-ve	2G/	-ve
=8-	=8-	=8-	=8-	=8-	=8-	=8-	=8-	=8-	=8-
!	!	!	!	!	!	!LO:TX:t=P:problem=kreska pseudotaktowa	!	!	!
2AA/	Ma-	2AA/	Ma-	.	.	1e	Ma-	1A	Ma-
.	.	.	.	4d\	.	.	.	.	.
2.A\	-ri-	2.A\	-ri-	4c\	.	.	.	.	.
!	!	!	!	!LO:TX:t=P:problem=kreska pseudotaktowa	!	!	!	!	!
.	.	.	.	4B\	.	.	.	.	.
!	!	!	!	!	!	!	!	!LO:TX:t=P:problem=kreska pseudotaktowa	!
.	.	.	.	2A/	-a	2.a\	-ri-	1c	-ri-
4G\	.	4G\	.	.	.	.	.	.	.
4F\	.	4F\	.	1A\	gra-	.	.	.	.
!LO:TX:t=P:problem=kreska pseudotaktowa	!	!LO:TX:t=P:problem=kreska pseudotaktowa	!	!	!	!LO:TX:t=P:problem=kreska pseudotaktowa	!	!	!
4E\	.	4E\	.	.	.	4g\	.	.	.
=9-	=9-	=9-	=9-	=9-	=9-	=9-	=9-	=9-	=9-
*	*	*	*	*	*	*	*	*2\right	*
!	!	!	!	!	!	!	!	!LO:TX:t=P:global:problem=oddech/cezura na różnej wysokości	!
2.D,</	-a	2.D/	-a	.	.	4f\	.	2d,<\	-a
.	.	.	.	.	.	4e\	.	.	.
.	.	.	.	1A	-ti-	1d	-a	1d	gra-
*	*ij	*	*	*	*	*	*	*	*
4C/	Ma-	4C/	Ma-	.	.	.	.	.	.
*custos:AA	*	*custos:AA	*	*	*	*	*	*	*
!LO:TX:t=P:problem=kreska pseudotaktowa	!	!LO:TX:t=P:problem=kreska pseudotaktowa	!	!	!	!	!	!	!
1BB-X	-ri-	1BB-X	-ri-	.	.	.	.	.	.
!	!	!	!	!LO:TX:t=P:problem=kreska pseudotaktowa	!	!LO:TX:t=P:problem=kreska pseudotaktowa	!	!LO:TX:t=P:problem=kreska pseudotaktowa	!
.	.	.	.	2G/	.	2g\	Ma-	2d\	-ti-
=10-	=10-	=10-	=10-	=10-	=10-	=10-	=10-	=10-	=10-
!LO:LB:g=original	!	!LO:LB:g=original	!	!	!	!LO:LB:g=original	!	!	!
2AA,</	-a	2AA,</	-a	2A\	-a	2e\	-ri-	1A,<	-a
*	*Xij	*	*	*	*	*	*	*	*
!	!	!LO:TX:t=P:problem=kreska pseudotaktowa	!	!	!	!LO:TX:t=P:problem=kreska pseudotaktowa	!	!	!
2D\	gra-	2D\	gra-	1A	ple-	2d\	-a	.	.
2.F\	.	2.F\	.	.	.	2.cny\	gra-	1A	ple-
.	.	.	.	1c\	.	.	.	.	.
!LO:TX:t=P:problem=kreska pseudotaktowa	!	!LO:TX:t=P:problem=kreska pseudotaktowa	!	!	!	!	!	!	!
4F\	-ti-	4F\	-ti-	.	.	4c\	-ti-	.	.
=11-	=11-	=11-	=11-	=11-	=11-	=11-	=11-	=11-	=11-
!	!	!	!	!	!	!	!	!LO:TX:t=P:problem=kreska pseudotaktowa	!
2C,</	-a	2C,</	-a	.	.	1e	-a	1c	-na
!	!	!LO:TX:t=P:problem=kreska pseudotaktowa	!	!LO:TX:t=P:problem=kreska pseudotaktowa	!	!	!	!	!
2E\	ple-	2E\	ple-	2G/	-na	.	.	.	.
!LO:TX:t=P:problem=kreska pseudotaktowa	!	!LO:TX:t=P:problem=kreska pseudotaktowa	!	!LO:LB:g=original	!	!	!	!	!
1G,<	-na	1G	-na	1B	Do-	2d\	ple-	1G	Do-
!	!	!	!	!	!	!LO:TX:t=P:problem=kreska pseudotaktowa	!	!	!
.	.	.	.	.	.	2d\	-na	.	.
=12-	=12-	=12-	=12-	=12-	=12-	=12-	=12-	=12-	=12-
2D\	Do-	2D/	Do-	2d\	.	2f\	Do-	1A	-mi-
!	!	!LO:TX:t=P:problem=kreska pseudotaktowa	!	!LO:TX:t=P:problem=kreska pseudotaktowa	!	!LO:TX:t=P:problem=kreska pseudotaktowa	!	!	!
2C#X/	-mi-	2C#X/	-mi-	2A/	-mi-	2e\	-mi-	.	.
*	*	*	*	*	*	*	*	*custos:E	*
!	!	!	!	!	!	!	!	!LO:TX:t=P:problem=kreska pseudotaktowa	!
4D/	-nus	4D/	-n(us)	2A\	-n(us)	2d\	-n(us)	1F	-n(us)
4C#/	.	4C#/	.	.	.	.	.	.	.
4BB-X/	.	4BB-X/	.	1B-X\	Te-	1g\	Te-	.	.
!	!	!LO:TX:t=P:problem=kreska pseudotaktowa	!	!	!	!	!	!	!
4AA/	.	4AA/	.	.	.	.	.	.	.
=13-	=13-	=13-	=13-	=13-	=13-	=13-	=13-	=13-	=13-
!	!	!	!	!	!	!	!	!LO:LB:g=original	!
2GG/	Te-	2GG/	Te-	.	.	.	.	1E	Te-
!	!	!LO:TX:t=P:problem=kreska pseudotaktowa	!	!	!	!LO:TX:t=P:problem=kreska pseudotaktowa	!	!	!
2AA/	.	2AA/	.	2A\	.	2e\	.	.	.
!LO:TX:t=P:problem=kreska pseudotaktowa	!	!LO:TX:t=P:problem=kreska pseudotaktowa	!	!LO:TX:t=P:problem=kreska pseudotaktowa	!	!LO:TX:t=P:problem=kreska pseudotaktowa	!	!LO:TX:t=P:problem=kreska pseudotaktowa	!
1D	-cum	1D	-cum	1A	-cum.	1f	-cum	0D	-cum
=14-	=14-	=14-	=14-	=14-	=14-	=14-	=14-	=14-	=14-
!	!	!	!	!LO:TX:t=P:problem=kreska pseudotaktowa	!	!	!	!	!
2r	.	2r	.	1r	.	0r	.	.	.
!	!	!LO:TX:t=P:problem=kreska pseudotaktowa	!	!	!	!	!	!	!
2G\	be-	2G\	be-	.	.	.	.	.	.
2G\	-ne-	2G\	-ne-	2r	.	.	.	2G/	be-
!	!	!LO:TX:t=P:problem=kreska pseudotaktowa	!	!LO:TX:t=P:problem=kreska pseudotaktowa	!	!	!	!LO:TX:t=P:problem=kreska pseudotaktowa	!
2GG/	-di-	2GG/	-di-	2G/	be-	.	.	2G/	-ne-
=15-	=15-	=15-	=15-	=15-	=15-	=15-	=15-	=15-	=15-
!LO:TX:t=P:problem=kreska pseudotaktowa	!	!	!	!	!	!	!	!	!
1Cny,<	-cta	1Cny,<	-cta	2G/	-ne-	2r	.	1G	-di-
!	!	!	!	!LO:TX:t=P:problem=kreska pseudotaktowa	!	!LO:TX:t=P:problem=kreska pseudotaktowa	!	!	!
.	.	.	.	2G/	-di-	2c/	be-	.	.
!	!	!LO:TX:t=P:problem=kreska pseudotaktowa	!	!	!	!	!	!	!
1C	Tu	1C	Tu	2.c\	-cta	2c\	-ne-	2G/	-cta
!	!	!	!	!	!	!LO:TX:t=P:problem=kreska pseudotaktowa	!	!LO:TX:t=P:problem=kreska pseudotaktowa	!
.	.	.	.	.	.	2c\	-di-	2G/	tu
.	.	.	.	4Bny\	.	.	.	.	.
=16-	=16-	=16-	=16-	=16-	=16-	=16-	=16-	=16-	=16-
1D	in	1D	in	(4A/	Tu	1f	-cta	1D	in
.	.	.	.	4G/)	.	.	.	.	.
.	.	.	.	(4A/	in	.	.	.	.
!	!	!	!	!LO:TX:t=P:problem=kreska pseudotaktowa	!	!	!	!	!
.	.	.	.	4B/)	.	.	.	.	.
!LO:TX:t=P:problem=kreska pseudotaktowa	!	!	!	!	!	!	!	!	!
1AA	mu-	1AA	mu-	2c\	mu-	2e\	Tu	2C/	mu-
!	!	!	!	!	!	!LO:TX:t=P:problem=kreska pseudotaktowa	!	!	!
.	.	.	.	2c\	-li-	2e\	in	2C/	-li-
=17-	=17-	=17-	=17-	=17-	=17-	=17-	=17-	=17-	=17-
!	!	!	!	!	!	!	!	!LO:TX:t=P:problem=kreska pseudotaktowa	!
2BB-X/	.	2BB-X/	-li-	2B-X\	-e-	4d\	mu-	1F	-e-
.	.	.	.	.	.	4e\	-li-	.	.
!	!	!LO:TX:t=P:problem=kreska pseudotaktowa	!	!LO:TX:t=P:problem=kreska pseudotaktowa	!	!	!	!	!
2F\	-li-	2F\	-e-	2A/	-ri-	1f	-e-	.	.
!	!	!	!	!LO:TX:t=P:global:problem=oddech/cezura na różnej wysokości	!	!	!	!	!
2.C/	-e-	2.C/	-ri-	2G,</	-bus	.	.	2.G/	.
!	!	!	!	!	!	!LO:TX:t=P:problem=kreska pseudotaktowa	!	!	!
.	.	.	.	1c\	et	2e\	-ri-	.	.
*	*	*custos:FF	*	*	*	*	*	*	*
!LO:TX:t=P:problem=kreska pseudotaktowa	!	!LO:TX:t=P:problem=kreska pseudotaktowa	!	!	!	!	!	!	!
4C/	-ri-	4C/	-bus	.	.	.	.	4G/	-ri-
=18-	=18-	=18-	=18-	=18-	=18-	=18-	=18-	=18-	=18-
!LO:LB:g=original	!	!LO:LB:g=original	!	!	!	!LO:TX:t=P:problem=kreska pseudotaktowa	!	!LO:TX:t=P:problem=kreska pseudotaktowa	!
2FF,</	-bus	2FF,</	et	.	.	1f	-bus	1A,<	-bus
1F	et	1F	be-	2c\	be-	.	.	.	.
.	.	.	.	1A	-ne-	2r	.	1A	et
!LO:TX:t=P:problem=kreska pseudotaktowa	!	!LO:TX:t=P:problem=kreska pseudotaktowa	!	!	!	!	!	!	!
2F\	be-	2F\	-ne-	.	.	1f\	et	.	.
=19-	=19-	=19-	=19-	=19-	=19-	=19-	=19-	=19-	=19-
!	!	!LO:TX:t=P:problem=kreska pseudotaktowa	!	!	!	!	!	!LO:TX:t=P:problem=kreska pseudotaktowa	!
1D	-ne-	1D	-di-	2.d\	-di-	.	.	1F	be-
!	!	!	!	!	!	!LO:TX:t=P:problem=kreska pseudotaktowa	!	!	!
.	.	.	.	.	.	2f\	be-	.	.
!	!	!	!	!LO:TX:t=P:problem=kreska pseudotaktowa	!	!	!	!	!
.	.	.	.	4c\	.	.	.	.	.
4G\	-di-	4G\	.	2Bn,<\	-ctus	2d\	-ne-	1G	-ne-
4F\	.	4F\	.	.	.	.	.	.	.
*	*	*	*	*	*	*custos:c	*	*	*
!LO:TX:t=P:problem=kreska pseudotaktowa	!	!LO:TX:t=P:problem=kreska pseudotaktowa	!	!	!	!LO:TX:t=P:problem=kreska pseudotaktowa	!	!	!
2E\	-ct(us)	2E\	-ctus	1c\	be-	2g\	-di-	.	.
=20-	=20-	=20-	=20-	=20-	=20-	=20-	=20-	=20-	=20-
!	!	!	!	!	!	!LO:LB:g=original	!	!	!
4F\	be-	4F\	be-	.	.	2c,</	-ctus	1F	-di-
4E\	.	4E\	.	.	.	.	.	.	.
!	!	!LO:TX:t=P:problem=kreska pseudotaktowa	!	!	!	!LO:TX:t=P:problem=kreska pseudotaktowa	!	!	!
2D\	-ne-	2D/	-ne-	2d\	-ne-	2f\	be-	.	.
!LO:TX:t=P:problem=kreska pseudotaktowa	!	!LO:TX:t=P:problem=kreska pseudotaktowa	!	!	!	!	!	!LO:TX:t=P:problem=kreska pseudotaktowa	!
1C	-di-	1C	-di-	1e	-di-	2g\	-ne-	1E	-ctus
!	!	!	!	!	!	!LO:TX:t=P:problem=kreska pseudotaktowa	!	!	!
.	.	.	.	.	.	2g\	-di-	.	.
=21-	=21-	=21-	=21-	=21-	=21-	=21-	=21-	=21-	=21-
!	!	!	!	!LO:TX:t=P:problem=kreska pseudotaktowa	!	!LO:TX:t=P:problem=kreska pseudotaktowa	!	!	!
2.D/	-ctus	(2.D/	-ctus	1d	-ctus	1f,<	-ctus	1F	Fru-
4C/	.	4C/)	.	.	.	.	.	.	.
!	!	!	!	!LO:TX:t=P:problem=kreska pseudotaktowa	!	!	!	!LO:TX:t=P:problem=kreska pseudotaktowa	!
!	!	!	!	!LO:LB:g=original	!	!	!	!	!
2BB-X/	Fru-	2BB-X/	Fru-	1r	.	2.g\	Fru-	1D	-ct(us)
!LO:TX:t=P:problem=kreska pseudotaktowa	!	!LO:TX:t=P:problem=kreska pseudotaktowa	!	!	!	!	!	!	!
2GG/	-ct(us)	2GG/	-ct(us)	.	.	.	.	.	.
!	!	!	!	!	!	!LO:TX:t=P:problem=kreska pseudotaktowa	!	!	!
.	.	.	.	.	.	4f\	.	.	.
=22-	=22-	=22-	=22-	=22-	=22-	=22-	=22-	=22-	=22-
!	!	!	!	!	!	!	!	!LO:TX:t=P:problem=kreska pseudotaktowa	!
2.C/	Ven-	2.C/	Ven-	2r	.	2e\	-ctus	1E	Ven-
!	!	!	!	!LO:TX:t=P:problem=kreska pseudotaktowa	!	!LO:TX:t=P:problem=kreska pseudotaktowa	!	!	!
.	.	.	.	2G/	Fru-	2c/	.	.	.
!	!	!LO:TX:t=P:problem=kreska pseudotaktowa	!	!	!	!	!	!	!
4BB-X/	.	4BBny/	.	.	.	.	.	.	.
2AA/	-tris	2AA/	-tris	2.A/	-ctus	2.f\	Ven-	1C	.
!LO:TX:t=P:problem=kreska pseudotaktowa	!	!LO:TX:t=P:problem=kreska pseudotaktowa	!	!	!	!	!	!	!
2FF/	.	2FF/	.	.	.	.	.	.	.
!	!	!	!	!	!	!LO:TX:t=P:problem=kreska pseudotaktowa	!	!	!
.	.	.	.	4G/	.	4e\	.	.	.
=23-	=23-	=23-	=23-	=23-	=23-	=23-	=23-	=23-	=23-
2BB-X/	Tu-	2BB-X/	Tu-	2F/	Ven-	2d\	.	1D	-tris
!	!	!LO:TX:t=P:problem=kreska pseudotaktowa	!	!	!	!	!	!	!
2GG/	.	2GG/	.	2B-X\	-tris	2g\	-tris	.	.
1AA	.	1AA	.	1A	Tu-	1e	Tu-	2.D/	Tu-
.	.	.	.	.	.	.	.	4C#X/	.
=24-	=24-	=24-	=24-	=24-	=24-	=24-	=24-	=24-	=24-
0D;>	-i.	0D;	-i.	0A;	-i.	0f#X;	-i.	0D;	-i.
=25||-	=25||-	=25||-	=25||-	=25||-	=25||-	=25||-	=25||-	=25||-	=25||-
*M2/1	*	*M2/1	*	*M2/1	*	*M2/1	*	*M2/1	*
*met(C|)	*	*met(C|)	*	*met(C|)	*	*met(C|)	*	*met(C|)	*
!	!	!LO:TX:t=P:problem=kreska pseudotaktowa	!	!	!	!LO:TX:t=P:problem=kreska pseudotaktowa	!	!LO:LB:g=original	!
00r	.	00r	.	2r	.	0r	.	00r	.
!	!	!	!	!LO:TX:t=P:problem=kreska pseudotaktowa	!	!	!	!	!
.	.	.	.	2A/	Al-	.	.	.	.
.	.	.	.	2A/	-le-	.	.	.	.
!	!	!	!	!LO:TX:t=P:problem=kreska pseudotaktowa	!	!	!	!	!
.	.	.	.	2G/	-lu-	.	.	.	.
=26-	=26-	=26-	=26-	=26-	=26-	=26-	=26-	=26-	=26-
.	.	.	.	2A,</	-ia	2r	.	.	.
*	*	*	*	*	*ij	*	*	*	*
!	!	!	!	!	!	!LO:TX:t=P:problem=kreska pseudotaktowa	!	!	!
.	.	.	.	2F/	Al-	2d\	Al-	.	.
.	.	.	.	2E/	-le-	2d\	-le-	.	.
!	!	!	!	!	!	!LO:TX:t=P:problem=kreska pseudotaktowa	!	!	!
.	.	.	.	2E/	-lu-	2c\	-lu-	.	.
=27-	=27-	=27-	=27-	=27-	=27-	=27-	=27-	=27-	=27-
!	!	!	!	!LO:TX:t=P:problem=kreska pseudotaktowa	!	!	!	!LO:TX:t=P:problem=kreska pseudotaktowa	!
2r	.	2r	.	1D	-ia	2d,<\	-ia	1r	.
*	*	*	*	*	*Xij	*	*ij	*	*
!	!	!	!	!	!	!LO:TX:t=P:problem=kreska pseudotaktowa	!	!	!
!LO:TX:t=P:problem=kreska pseudotaktowa	!	!LO:TX:t=P:problem=kreska pseudotaktowa	!	!	!	!LO:TX:a:t=P:problem=♮ above	!	!	!
2G\	Al-	2G\	Al-	.	.	2Bn/	Al-	.	.
!LO:LB:g=original	!	!	!	!LO:TX:t=P:problem=kreska pseudotaktowa	!	!	!	!	!
2G\	-le-	2G\	-le-	1r	.	2A/	-le-	2r	.
*	*	*custos:G	*	*	*	*	*	*	*
!LO:TX:t=P:problem=kreska pseudotaktowa	!	!LO:TX:t=P:problem=kreska pseudotaktowa	!	!	!	!LO:TX:t=P:problem=kreska pseudotaktowa	!	!LO:TX:t=P:problem=kreska pseudotaktowa	!
2F\	-lu-	2F\	-lu-	.	.	2A/	-lu-	2d\	Al-
=28-	=28-	=28-	=28-	=28-	=28-	=28-	=28-	=28-	=28-
!	!	!LO:LB:g=original	!	!	!	!	!	!	!
2G,<\	-ia	2G,<\	-ia	2r	.	2Bn/	-ia	2d\	-le-
*	*ij	*	*ij	*	*	*	*Xij	*	*
!	!	!LO:TX:t=P:problem=kreska pseudotaktowa	!	!LO:TX:t=P:problem=kreska pseudotaktowa	!	!LO:TX:t=P:problem=kreska pseudotaktowa	!	!LO:TX:t=P:problem=kreska pseudotaktowa	!
2E\	Al-	2E\	Al-	2G/	al-	2r	.	2c\	-lu-
2D\	-le-	2D/	-le-	2G/	-le-	2r	.	2d,<\	-ia
*	*	*	*	*	*	*	*	*	*ij
*	*	*	*	*	*	*custos:e	*	*	*
!	!	!LO:TX:t=P:problem=kreska pseudotaktowa	!	!LO:TX:t=P:problem=kreska pseudotaktowa	!	!LO:TX:t=P:problem=kreska pseudotaktowa	!	!LO:TX:t=P:problem=kreska pseudotaktowa	!
2D\	-lu-	2D/	-lu-	2F/	-lu-	2d\	al-	2A/	Al-
=29-	=29-	=29-	=29-	=29-	=29-	=29-	=29-	=29-	=29-
!LO:TX:t=P:problem=kreska pseudotaktowa	!	!LO:TX:t=P:problem=kreska pseudotaktowa	!	!	!	!LO:LB:g=original	!	!	!
1C	-ia	1C	-ia	2G,</	-ia	2e\	-le-	2c\	-le-
*	*Xij	*	*Xij	*	*ij	*	*	*	*
!	!	!	!	!	!	!	!	!LO:TX:t=P:problem=kreska pseudotaktowa	!
.	.	.	.	2E/	al-	1c	.	2c\	-lu-
!	!	!	!	!	!	!	!	!LO:TX:t=P:problem=kreska pseudotaktowa	!
0r	.	0r	.	2D/	-le-	.	.	1G	-ia
*	*	*	*	*	*	*	*	*	*Xij
!	!	!	!	!LO:TX:t=P:problem=kreska pseudotaktowa	!	!LO:TX:t=P:problem=kreska pseudotaktowa	!	!	!
.	.	.	.	2D/	-lu-	2B/	-lu-	.	.
=30-	=30-	=30-	=30-	=30-	=30-	=30-	=30-	=30-	=30-
!	!	!	!	!	!	!	!	!LO:TX:t=P:problem=kreska pseudotaktowa	!
.	.	.	.	2E,</	-ia	1c	-ia	0r	.
.	.	.	.	2E/	al-	.	.	.	.
2r	.	2r	.	2F/	.	2d\	al-	.	.
!LO:TX:t=P:problem=kreska pseudotaktowa	!	!LO:TX:t=P:problem=kreska pseudotaktowa	!	!	!	!LO:TX:t=P:problem=kreska pseudotaktowa	!	!	!
2D\	al-	2D/	al-	1A\	-le-	2fny\	le-	.	.
=31-	=31-	=31-	=31-	=31-	=31-	=31-	=31-	=31-	=31-
2D\	-le-	2D/	-le-	.	.	2f\	.	2r	.
!	!	!LO:TX:t=P:problem=kreska pseudotaktowa	!	!LO:TX:t=P:problem=kreska pseudotaktowa	!	!LO:TX:t=P:problem=kreska pseudotaktowa	!	!LO:TX:t=P:problem=kreska pseudotaktowa	!
2C/	-lu-	2C/	-lu-	2A\	-lu-	2e\	-lu-	2A\	al-
2D,</	-ia	2D/	-ia	2A\	-ia	2f,<\	-ia	2A/	-le-
*	*	*	*ij	*	*Xij	*	*ij	*	*
!	!	!LO:TX:t=P:problem=kreska pseudotaktowa	!	!LO:TX:t=P:problem=kreska pseudotaktowa	!	!LO:TX:t=P:problem=kreska pseudotaktowa	!	!LO:TX:t=P:problem=kreska pseudotaktowa	!
2BBny/	al-	2BBny/	al-	2r	.	2d\	al-	2G/	-lu-
=32-	=32-	=32-	=32-	=32-	=32-	=32-	=32-	=32-	=32-
!	!	!	!	!LO:LB:g=original	!	!	!	!	!
1.AA	-le-	1.AA	-le-	[<2A/	al-	2c#X/	-le-	2A,</	-ia
*	*	*	*	*	*	*	*	*	*ij
!	!	!	!	!LO:N:xstem:cue	!	!	!	!LO:TX:t=P:problem=kreska pseudotaktowa	!
.	.	.	.	4A]	.	1d	.	2F/	al-
.	.	.	.	8G/L	-le-	.	.	.	.
!	!	!	!	!LO:TX:t=P:problem=kreska pseudotaktowa	!	!	!	!	!
.	.	.	.	8F/J	.	.	.	.	.
.	.	.	.	2.E/	-lu-	.	.	2E/	-le-
!	!	!	!	!	!	!LO:TX:t=P:problem=kreska pseudotaktowa	!	!	!
2AA/	lu-	2AA/	-lu-	.	.	2c#X/	-lu-	2E/	-lu-
.	.	.	.	4E/	-ia.	.	.	.	.
=33-	=33-	=33-	=33-	=33-	=33-	=33-	=33-	=33-	=33-
!	!	!	!	!LO:TX:b:t=P:problem=# below	!	!	!	!	!
0D;	-ia	0D;	-ia	0F#X;>	.	0d;	-ia	0D;	-ia
*	*	*	*Xij	*	*	*	*Xij	*	*Xij
=34||-	=34||-	=34||-	=34||-	=34||-	=34||-	=34||-	=34||-	=34||-	=34||-
*M2/1	*	*M2/1	*	*M2/1	*	*M2/1	*	*M2/1	*
*met(C|)	*	*met(C|)	*	*met(C|)	*	*met(C|)	*	*met(C|)	*
!	!	!LO:TX:t=P:problem=kreska pseudotaktowa	!	!LO:TX:t=P:problem=kreska pseudotaktowa	!	!	!	!	!
0r	.	0r	.	1r	.	1d	Vir-	00r	.
.	.	.	.	(1G	Vir-	2e,<\	-ga	.	.
.	.	.	.	.	.	1g\	Jeſ-	.	.
=35-	=35-	=35-	=35-	=35-	=35-	=35-	=35-	=35-	=35-
1D	Vir-	(1D	Vir-	1A)	.	.	.	.	.
!	!	!	!	!	!	!LO:TX:t=P:problem=kreska pseudotaktowa	!	!	!
.	.	.	.	.	.	2f#X\	-se	.	.
!	!	!	!	!LO:TX:t=P:problem=kreska pseudotaktowa	!	!	!	!	!
2E\	-ga	2E\	.	1G	-ga	2g\	flo-	.	.
1G\	.	1G\)	.	.	.	2G/	.	.	.
=36-	=36-	=36-	=36-	=36-	=36-	=36-	=36-	=36-	=36-
!	!	!	!	!	!	!	!	!LO:TX:t=P:problem=kreska pseudotaktowa	!
.	.	.	.	1A	Jeſ-	2.cny/	-ru-	1r	.
!	!	!LO:TX:t=P:problem=kreska pseudotaktowa	!	!	!	!	!	!	!
2F\	.	2F\	-ga	.	.	.	.	.	.
!	!	!	!	!	!	!LO:TX:t=P:problem=kreska pseudotaktowa	!	!	!
.	.	.	.	.	.	4c/	-it	.	.
!LO:LB:g=original	!	!	!	!	!	!	!	!	!
2G\	Jeſ-	2G\	Jeſ-	1Bny	-se	2B,</	.	(1G	Vir-
!	!	!LO:TX:t=P:problem=kreska pseudotaktowa	!	!	!	!	!	!	!
2GG/	-se	2GG/	-se	.	.	1g\	Vir-	.	.
=37-	=37-	=37-	=37-	=37-	=37-	=37-	=37-	=37-	=37-
2C/	flo-	2C/	flo-	2c\	flo-	.	.	1A)	.
!LO:TX:t=P:problem=kreska pseudotaktowa	!	!LO:TX:t=P:problem=kreska pseudotaktowa	!	!LO:TX:t=P:problem=kreska pseudotaktowa	!	!LO:TX:t=P:problem=kreska pseudotaktowa	!	!	!
2D\	-ru-	2D\	-ru-	2A/	-ru-	2f#X\	-ga	.	.
*	*	*	*	*	*	*	*	*custos:A	*
!	!	!	!	!	!	!	!	!LO:TX:t=P:problem=kreska pseudotaktowa	!
2GG,</	-it	2GG,</	-it	2B,<\	-it	2g\	Jeſ-	1G	-ga
*	*	*	*	*	*	*custos:A	*	*	*
!	!	!	!	!	!	!LO:TX:t=P:problem=kreska pseudotaktowa	!	!	!
1G\	Vir-	1G\	Vir-	2G/	Vir-	2B/	-se	.	.
=38-	=38-	=38-	=38-	=38-	=38-	=38-	=38-	=38-	=38-
!	!	!	!	!	!	!LO:LB:g=original	!	!LO:LB:g=original	!
.	.	.	.	1c	-ga	4A/	flo-	1A	Jeſ-
.	.	.	.	.	.	4B/	.	.	.
*	*	*custos:G	*	*	*	*	*	*	*
!LO:TX:t=P:problem=kreska pseudotaktowa	!	!LO:TX:t=P:problem=kreska pseudotaktowa	!	!	!	!	!	!	!
2F\	-ga	2F\	-ga	.	.	4c/	.	.	.
!	!	!	!	!	!	!LO:TX:t=P:problem=kreska pseudotaktowa	!	!	!
.	.	.	.	.	.	4A/	.	.	.
!	!	!LO:LB:g=original	!	!	!	!	!	!LO:TX:t=P:problem=kreska pseudotaktowa	!
1G	Jeſ-	1G	Jeſ-	2B\	Jeſ-	1d	.	1B	-se
!	!	!	!	!LO:TX:t=P:problem=kreska pseudotaktowa	!	!	!	!	!
.	.	.	.	2G/	-se	.	.	.	.
=39-	=39-	=39-	=39-	=39-	=39-	=39-	=39-	=39-	=39-
1C	-se	1C	-se	4A/	flo-	2.e\	.	1c	flo-
.	.	.	.	4G/	.	.	.	.	.
.	.	.	.	1G	.	.	.	.	.
.	.	.	.	.	.	4e\	-ru-	.	.
!	!	!	!	!	!	!LO:TX:t=P:problem=kreska pseudotaktowa	!	!	!
2.D\	flo-	2.D/	flo-	.	.	1d	-it	1A	-ru-
!	!	!	!	!LO:TX:a:t=P:problem=# above	!	!	!	!	!
!	!	!	!	!LO:TX:t=P:problem=kreska pseudotaktowa	!	!	!	!	!
.	.	.	.	2F#X/	-ru-	.	.	.	.
4D\	-ru-	4D/	-ru-	.	.	.	.	.	.
=40-	=40-	=40-	=40-	=40-	=40-	=40-	=40-	=40-	=40-
!LO:TX:t=P:problem=kreska pseudotaktowa	!	!LO:TX:t=P:problem=kreska pseudotaktowa	!	!LO:TX:t=P:problem=kreska pseudotaktowa	!	!	!	!LO:TX:t=P:problem=kreska pseudotaktowa	!
!	!	!	!	!	!	!	!	!LO:TX:a:t=4	!
0GG	-it	0GG	-it	0G	-it	2r	.	00B	-it
!	!	!	!	!	!	!LO:TX:t=P:problem=kreska pseudotaktowa	!	!	!
.	.	.	.	.	.	2d\	Vir-	.	.
.	.	.	.	.	.	2d\	-go	.	.
!	!	!	!	!	!	!LO:TX:t=P:problem=kreska pseudotaktowa	!	!	!
.	.	.	.	.	.	2e\	De-	.	.
=41-	=41-	=41-	=41-	=41-	=41-	=41-	=41-	=41-	=41-
1r	.	1r	.	1r	.	2d\	-um	.	.
!	!	!	!	!	!	!LO:TX:t=P:problem=kreska pseudotaktowa	!	!	!
.	.	.	.	.	.	2B/	et	.	.
2r	.	2r	.	2r	.	2d\	ho-	.	.
*	*	*	*	*custos:B	*	*	*	*	*
!LO:TX:t=P:problem=kreska pseudotaktowa	!	!LO:TX:t=P:problem=kreska pseudotaktowa	!	!LO:TX:t=P:problem=kreska pseudotaktowa	!	!LO:TX:t=P:problem=kreska pseudotaktowa	!	!	!
2G\	Vir-	2G\	Vir-	2B\	Vir-	2d\	-mi-	.	.
=42-	=42-	=42-	=42-	=42-	=42-	=42-	=42-	=42-	=42-
!	!	!	!	!LO:LB:g=original	!	!	!	!	!
2G,<\	-go	2G\	-go	2B\	-go	2d\	-nem	0r	.
!	!	!LO:TX:t=P:problem=kreska pseudotaktowa	!	!LO:TX:t=P:problem=kreska pseudotaktowa	!	!	!	!	!
2A\	De-	2A\	De-	2c\	De-	4c/	.	.	.
!	!	!	!	!	!	!LO:TX:t=P:problem=kreska pseudotaktowa	!	!	!
.	.	.	.	.	.	4B/	.	.	.
2F\	-um	2F\	-um	2A/	-um	1.c	ge-	.	.
!LO:TX:t=P:problem=kreska pseudotaktowa	!	!LO:TX:t=P:problem=kreska pseudotaktowa	!	!LO:TX:t=P:problem=kreska pseudotaktowa	!	!	!	!	!
2E\	et	2E\	et	2G/	.	.	.	.	.
=43-	=43-	=43-	=43-	=43-	=43-	=43-	=43-	=43-	=43-
!	!	!	!	!	!	!	!	!LO:TX:t=P:problem=kreska pseudotaktowa	!
4F\	Ho-	4F\	ho-	4A\	et	.	.	1r	.
4F\	-mi-	4F\	-mi-	4B\	.	.	.	.	.
!LO:TX:t=P:problem=kreska pseudotaktowa	!	!LO:TX:t=P:problem=kreska pseudotaktowa	!	!	!	!LO:TX:t=P:problem=kreska pseudotaktowa	!	!	!
2A\	-nem	2A\	-nem	4c\	Ho-	2c/	-nu-	.	.
!	!	!	!	!LO:TX:t=P:problem=kreska pseudotaktowa	!	!	!	!	!
.	.	.	.	4A\	.	.	.	.	.
!	!	!	!	!	!	!LO:TX:t=P:problem=kreska pseudotaktowa	!	!	!
2.G\	ge-	2.G\	ge-	4B\	.	0d	-it.	2r	.
.	.	.	.	4c\	-mi-	.	.	.	.
!	!	!	!	!LO:TX:t=P:problem=kreska pseudotaktowa	!	!	!	!LO:TX:t=P:problem=kreska pseudotaktowa	!
.	.	.	.	2d\	-nem	.	.	2B\	Vir-
4G\	-nu-	4G\	-nu-	.	.	.	.	.	.
=44-	=44-	=44-	=44-	=44-	=44-	=44-	=44-	=44-	=44-
!LO:TX:t=P:problem=kreska pseudotaktowa	!	!LO:TX:t=P:problem=kreska pseudotaktowa	!	!	!	!	!	!	!
1G	-it	1G	-it	4d\	ge-	.	.	1B	-go
.	.	.	.	4c\	.	.	.	.	.
.	.	.	.	4B\	.	.	.	.	.
!	!	!	!	!LO:TX:t=P:problem=kreska pseudotaktowa	!	!	!	!	!
.	.	.	.	4A\	.	.	.	.	.
!LO:LB:g=original	!	!	!	!	!	!	!	!LO:TX:t=P:problem=kreska pseudotaktowa	!
2r	.	2r	.	2G/	-nu-	2r	.	1c	De-
!	!	!LO:TX:t=P:problem=kreska pseudotaktowa	!	!LO:TX:t=P:problem=kreska pseudotaktowa	!	!LO:TX:t=P:problem=kreska pseudotaktowa	!	!	!
2C/	Vir-	2C/	Vir-	2G/	-it	2e\	Vir-	.	.
=45-	=45-	=45-	=45-	=45-	=45-	=45-	=45-	=45-	=45-
!	!	!	!	!LO:TX:t=P:problem=kreska pseudotaktowa	!	!	!	!	!
2C/	-go	2C/	-go	1A	.	2e\	-go	1A	-um
!LO:TX:t=P:problem=kreska pseudotaktowa	!	!LO:TX:t=P:problem=kreska pseudotaktowa	!	!	!	!LO:TX:t=P:problem=kreska pseudotaktowa	!	!	!
2D\	De-	2D\	De-	.	.	2fny\	De-	.	.
!	!	!	!	!	!	!	!	!LO:TX:t=P:problem=kreska pseudotaktowa	!
2BB/	-um	2BB/	-um	2B\	et	2.d\	-um	1G	et
!LO:TX:t=P:problem=kreska pseudotaktowa	!	!LO:TX:t=P:problem=kreska pseudotaktowa	!	!LO:TX:t=P:problem=kreska pseudotaktowa	!	!	!	!	!
2GG/	et	2GG/	et	[<2d\	Ho-	.	.	.	.
!	!	!	!	!	!	!LO:TX:t=P:problem=kreska pseudotaktowa	!	!	!
.	.	.	.	.	.	4e\	et	.	.
=46-	=46-	=46-	=46-	=46-	=46-	=46-	=46-	=46-	=46-
!	!	!	!	!	!	!LO:TX:t=P:problem=kreska pseudotaktowa	!	!	!
4D\	Ho-	4D\	ho-	2d\]	.	1f	ho-	2.A\	ho-
4E\	.	4E\	.	.	.	.	.	.	.
!	!	!	!	!LO:TX:t=P::problem=kreska pseudotaktowa&colon;między nutą a kropką	!	!	!	!	!
4F\	.	4F\	.	[<2c\	-mi-	.	.	.	.
!	!	!LO:TX:t=P:problem=kreska pseudotaktowa	!	!	!	!	!	!	!
4G\	.	4G\	.	.	.	.	.	4A\	-mi-
!	!	!	!	!LO:N:xstem:cue	!	!	!	!LO:TX:t=P:problem=kreska pseudotaktowa	!
2A\	.	2A\	.	4c]	.	2e\	.	1c	-nem
.	.	.	.	4B\	.	.	.	.	.
*	*	*	*	*	*	*custos:d	*	*	*
!	!	!	!	!LO:TX:t=P::problem=kreska pseudotaktowa&colon;między nutą a kropką	!	!LO:TX:t=P:problem=kreska pseudotaktowa	!	!	!
2F\	-mi-	2F\	-mi-	[2A/	-nem	2f\	-mi-	.	.
=47-	=47-	=47-	=47-	=47-	=47-	=47-	=47-	=47-	=47-
!LO:TX:t=P:problem=kreska pseudotaktowa	!	!LO:TX:t=P:problem=kreska pseudotaktowa	!	!LO:N:xstem:cue	!	!LO:LB:g=original	!	!	!
1G	-nem	1G,<	-nem	4A/]	.	2d\	-nem	1B	.
.	.	.	.	4G/	.	.	.	.	.
!	!	!	!	!	!	!LO:TX:t=P::problem=kreska pseudotaktowa&colon;między nutą a kropką	!	!	!
.	.	.	.	1G	ge-	2.e\	ge-	.	.
2A\	ge-	2A\	ge-	.	.	.	.	2.c\	ge-
.	.	.	.	.	.	4d\	.	.	.
*	*	*custos:G	*	*	*	*	*	*	*
!	!	!	!	!LO:TX:t=P:problem=kreska pseudotaktowa	!	!	!	!	!
2A\	-nu-	2A\	-nu-	2Fny/	-nu-	1c\	.	.	.
!	!	!	!	!	!	!	!	!LO:TX:t=P:problem=kreska pseudotaktowa	!
.	.	.	.	.	.	.	.	4c\	-nu-
=48-	=48-	=48-	=48-	=48-	=48-	=48-	=48-	=48-	=48-
!LO:TX:t=P:problem=kreska pseudotaktowa	!	!LO:TX:t=P:problem=kreska pseudotaktowa	!	!	!	!	!	!LO:TX:t=P:problem=kreska pseudotaktowa	!
!	!	!LO:LB:g=original	!	!	!	!	!	!	!
0G	-it	0G	-it:	1.G	-it	.	.	0d	-it
.	.	.	.	.	.	4B/	.	.	.
!	!	!	!	!	!	!LO:TX:t=P:problem=kreska pseudotaktowa	!	!	!
.	.	.	.	.	.	4A/	.	.	.
.	.	.	.	.	.	2B/	.	.	.
!	!	!	!	!LO:TX:t=P:problem=kreska pseudotaktowa	!	!LO:TX:t=P:problem=kreska pseudotaktowa	!	!	!
.	.	.	.	2D/	pa-	2B/	-nu-	.	.
=49-	=49-	=49-	=49-	=49-	=49-	=49-	=49-	=49-	=49-
!	!	!	!	!	!	!LO:TX:t=P:problem=kreska pseudotaktowa	!	!	!
0r	.	0r	.	1E	-cem	1c	-it	2r	.
.	.	.	.	.	.	.	.	1A	pa-
.	.	.	.	2F/	De-	2r	.	.	.
!	!	!	!	!LO:TX:t=P::problem=kreska pseudotaktowa&colon;między nutą a kropką	!	!LO:TX:t=P:problem=kreska pseudotaktowa	!	!LO:TX:t=P:problem=kreska pseudotaktowa	!
.	.	.	.	[2G/	.	2d\	pa-	2B\	-cem
=50-	=50-	=50-	=50-	=50-	=50-	=50-	=50-	=50-	=50-
!	!	!	!	!LO:N:xstem:cue	!	!	!	!	!
2r	.	2r	.	4G/]	.	2e\	-cem	(2c\	De-
.	.	.	.	4E/	.	.	.	.	.
*	*	*	*	*custos:G	*	*	*	*	*
!LO:TX:t=P:problem=kreska pseudotaktowa	!	!LO:TX:t=P:problem=kreska pseudotaktowa	!	!LO:TX:t=P:problem=kreska pseudotaktowa	!	!LO:TX:t=P:problem=kreska pseudotaktowa	!	!LO:TX:t=P:problem=kreska pseudotaktowa	!
2D\	pa-	2D\	pa-	2A\	.	2f\	De-	2d\)	.
!	!	!	!	!LO:TX:t=P:problem=kreska pseudotaktowa	!	!	!	!	!
!	!	!	!	!LO:LB:g=original	!	!	!	!	!
1E	.	1E	.	1G	-us	2g\	-us	2B\	-us
!	!	!	!	!	!	!LO:TX:t=P:problem=kreska pseudotaktowa	!	!	!
.	.	.	.	.	.	2e\	red-	1c\	red-
=51-	=51-	=51-	=51-	=51-	=51-	=51-	=51-	=51-	=51-
2F\	-cem	2F\	-cem	2r	.	2.d\	.	.	.
!	!	!	!	!LO:TX:t=P::problem=kreska pseudotaktowa&colon;między nutą a kropką	!	!	!	!	!
1G	DE-	1G	De-	[<2G/	De-	.	.	4B\	.
!	!	!	!	!	!	!LO:TX:t=P:problem=kreska pseudotaktowa	!	!LO:TX:t=P:problem=kreska pseudotaktowa	!
.	.	.	.	.	.	4c/	.	4A\	.
!	!	!	!	!LO:N:xstem:cue	!	!	!	!	!
.	.	.	.	4G]	.	2d\	.	2.B\	.
.	.	.	.	4F/	.	.	.	.	.
!LO:TX:t=P:problem=kreska pseudotaktowa	!	!LO:TX:t=P:problem=kreska pseudotaktowa	!	!LO:TX:t=P:problem=kreska pseudotaktowa	!	!	!	!	!
2E\	-(us)	2E\	-us	2G/	-us	1e\	.	.	.
*	*	*	*	*	*	*	*	*custos:A	*
!	!	!	!	!	!	!	!	!LO:TX:t=P:problem=kreska pseudotaktowa	!
.	.	.	.	.	.	.	.	4c\	-di-
=52-	=52-	=52-	=52-	=52-	=52-	=52-	=52-	=52-	=52-
!	!	!	!	!	!	!	!	!LO:LB:g=original	!
1.F	red-	1.F	red-	1.A	red-	.	.	1.A	-dit
.	.	.	.	.	.	4d\	.	.	.
!	!	!	!	!	!	!LO:TX:t=P:problem=kreska pseudotaktowa	!	!	!
.	.	.	.	.	.	4c\	.	.	.
.	.	.	.	.	.	2.d\	.	.	.
!	!	!LO:TX:t=P:problem=kreska pseudotaktowa	!	!	!	!	!	!LO:TX:t=P:problem=kreska pseudotaktowa	!
2F\	-di-	2F\	-di-	2A\	-di-	.	.	2A/	pa-
!	!	!	!	!	!	!LO:TX:t=P:problem=kreska pseudotaktowa	!	!	!
.	.	.	.	.	.	4d\	-di-	.	.
=53-	=53-	=53-	=53-	=53-	=53-	=53-	=53-	=53-	=53-
!LO:TX:t=P:problem=kreska pseudotaktowa	!	!LO:TX:t=P:problem=kreska pseudotaktowa	!	!LO:TX:t=P:problem=kreska pseudotaktowa	!	!LO:TX:t=P:problem=kreska pseudotaktowa	!	!	!
1E	-dit	1E	-dit	1G#X	-dit	0e	-dit	(1B	-cem
!LO:LB:g=original	!	!	!	!	!	!	!	!LO:TX:t=P:problem=kreska pseudotaktowa	!
0r	.	0r	.	2r	.	.	.	1A)	.
!	!	!	!	!LO:TX:t=P:problem=kreska pseudotaktowa	!	!	!	!	!
.	.	.	.	2A\	in	.	.	.	.
=54-	=54-	=54-	=54-	=54-	=54-	=54-	=54-	=54-	=54-
.	.	.	.	2Gny/	se	2r	.	2B\	De-
!	!	!	!	!LO:TX:t=P:problem=kreska pseudotaktowa	!	!LO:TX:t=P:problem=kreska pseudotaktowa	!	!LO:TX:t=P:problem=kreska pseudotaktowa	!
.	.	.	.	2E/	re-	2e\	in	2c\	-us
!	!	!LO:TX:t=P:problem=kreska pseudotaktowa	!	!	!	!	!	!	!
1r	.	1r	.	1G	-con-	2d\	se	2.B\	red-
!	!	!	!	!	!	!LO:TX:t=P:problem=kreska pseudotaktowa	!	!	!
.	.	.	.	.	.	2B/	re-	.	.
.	.	.	.	.	.	.	.	4B\	-di-
=55-	=55-	=55-	=55-	=55-	=55-	=55-	=55-	=55-	=55-
!	!	!	!	!	!	!	!	!LO:TX:t=P:problem=kreska pseudotaktowa	!
2r	.	2r	.	2.A/	-ci-	4c\	-con-	1A	-dit
.	.	.	.	.	.	4d\	.	.	.
!LO:TX:t=P:problem=kreska pseudotaktowa	!	!LO:TX:t=P:problem=kreska pseudotaktowa	!	!	!	!	!	!	!
2A\	in	2A\	in	.	.	4e\	.	.	.
*	*	*	*	*	*	*custos:g	*	*	*
!	!	!	!	!LO:TX:t=P:problem=kreska pseudotaktowa	!	!LO:TX:t=P:problem=kreska pseudotaktowa	!	!	!
.	.	.	.	4A/	-li-	4f\	.	.	.
!	!	!	!	!	!	!LO:LB:g=original	!	!	!
2G\	se	2G\	se	2D,</	-ans	2.g\	-ci-	1B	in
!LO:TX:t=P:problem=kreska pseudotaktowa	!	!LO:TX:t=P:problem=kreska pseudotaktowa	!	!LO:TX:t=P:problem=kreska pseudotaktowa	!	!	!	!	!
2E\	re-	2E\	re-	2G/	re-	.	.	.	.
!	!	!	!	!	!	!LO:TX:t=P:problem=kreska pseudotaktowa	!	!	!
.	.	.	.	.	.	4g\	-li-	.	.
=56-	=56-	=56-	=56-	=56-	=56-	=56-	=56-	=56-	=56-
4G\	-con-	4G\	-con-	4G/	-con-	2d,<\	-ans	2B\	se
4F\	.	4F\	.	4A/	-ci-	.	.	.	.
!	!	!	!	!LO:TX:t=P:problem=kreska pseudotaktowa	!	!	!	!	!
4E\	.	4E\	.	2B\	-li-	1g	i-	2B\	re-
!	!	!LO:TX:t=P:problem=kreska pseudotaktowa	!	!	!	!	!	!	!
4D\	.	4D\	.	.	.	.	.	.	.
!	!	!	!	!	!	!	!	!LO:TX:t=P:problem=kreska pseudotaktowa	!
2C/	-ci-	2C/	-ci-	2c,<\	ans	.	.	1A	-con-
!	!	!	!	!	!	!LO:TX:a:t=P:problem=# above	!	!	!
!LO:TX:t=P:problem=kreska pseudotaktowa	!	!LO:TX:t=P:problem=kreska pseudotaktowa	!	!	!	!LO:TX:t=P:problem=kreska pseudotaktowa	!	!	!
2D\	-li-	2D\	-li-	2A\	i-	2f#X\	ma	.	.
=57-	=57-	=57-	=57-	=57-	=57-	=57-	=57-	=57-	=57-
2BB,</	-ans	2BB,</	-ans	4B\	-ma	4g\	i-	2.G/	-ci-
.	.	.	.	4A\	.	4fny\	.	.	.
!	!	!LO:TX:t=P::problem=kreska pseudotaktowa&colon;między nutą a kropką	!	!	!	!	!	!	!
2.C/	i-	(2.C/	i-	4G/	.	4e\	.	.	.
!	!	!	!	!LO:TX:t=P:problem=kreska pseudotaktowa	!	!LO:TX:t=P:problem=kreska pseudotaktowa	!	!	!
.	.	.	.	4F/	.	4d\	.	4G/	-li-
!	!	!	!	!	!	!	!	!LO:TX:t=P:problem=kreska pseudotaktowa	!
.	.	.	.	4E/	.	2c/	.	1G	-ans
4BB/	-ma	4BB/)	-ma	4D/	.	.	.	.	.
!LO:TX:t=P:problem=kreska pseudotaktowa	!	!	!	!	!	!	!	!	!
2GG/	.	2GG/	.	1G/	sum-	2B/	.	.	.
=58-	=58-	=58-	=58-	=58-	=58-	=58-	=58-	=58-	=58-
!	!	!LO:TX:t=P:problem=kreska pseudotaktowa	!	!	!	!	!	!	!
1D	sum-	1D	sum-	.	.	2A,</	-ma	2r	.
*	*	*	*	*	*	*	*	*	*ij
!	!	!	!	!LO:TX:t=P:problem=kreska pseudotaktowa	!	!LO:TX:t=P:problem=kreska pseudotaktowa	!	!LO:TX:t=P:problem=kreska pseudotaktowa	!
.	.	.	.	2F/	.	2a\	su-	2A\	in
!	!	!	!	!	!	!LO:TX:t=P:problem=kreska pseudotaktowa	!	!	!
2GG,</	-mis	2GG,</	-mis	2G,</	-mis	1g	-mis	1B	se
!	!	!LO:TX:t=P:problem=kreska pseudotaktowa	!	!LO:TX:t=P:problem=kreska pseudotaktowa	!	!	!	!	!
2G\	re-	2G\	re-	2D/	re-	.	.	.	.
=59-	=59-	=59-	=59-	=59-	=59-	=59-	=59-	=59-	=59-
2E\	-con-	(2E\	-con-	2.E/	-con-	2r	.	2c\	re-
*	*	*custos:G	*	*	*	*	*	*	*
!LO:TX:t=P:problem=kreska pseudotaktowa	!	!LO:TX:t=P:problem=kreska pseudotaktowa	!	!	!	!LO:TX:t=P:problem=kreska pseudotaktowa	!	!LO:TX:t=P:problem=kreska pseudotaktowa	!
2A\	.	2A\)	.	.	.	2c\	re-	2c\	-con-
*	*	*	*	*custos:G	*	*	*	*	*
!	!	!	!	!LO:TX:t=P:problem=kreska pseudotaktowa	!	!	!	!	!
.	.	.	.	4F/	.	.	.	.	.
!	!	!LO:LB:g=original	!	!LO:LB:g=original	!	!	!	!	!
2.G\	-ci-	2.G\	-ci-	1G	.	(2d\	-con-	2.B\	-ci-
!	!	!	!	!	!	!LO:TX:t=P:problem=kreska pseudotaktowa	!	!	!
.	.	.	.	.	.	2e\)	.	.	.
!	!	!LO:TX:t=P:problem=kreska pseudotaktowa	!	!	!	!	!	!	!
4G\	-li-	4G\	-li-	.	.	.	.	4B\	-li-
=60-	=60-	=60-	=60-	=60-	=60-	=60-	=60-	=60-	=60-
!LO:TX:t=P:problem=kreska pseudotaktowa	!	!LO:TX:t=P:problem=kreska pseudotaktowa	!	!	!	!	!	!LO:TX:t=P:problem=kreska pseudotaktowa	!
1F	-ans	1F	-ans	2A\	-ci-	2.f\	-ci-	1A,<	-ans
*	*	*	*	*	*	*	*	*	*Xij
!	!	!	!	!LO:TX:t=P:problem=kreska pseudotaktowa	!	!	!	!	!
.	.	.	.	2c\	-li-	.	.	.	.
.	.	.	.	.	.	4f\	-li-	.	.
!LO:LB:g=original	!	!	!	!	!	!	!	!	!
2G\	i-	2G\	i-	2B\	-ans	2d,<\	-ans	1B	i-
!	!	!LO:TX:t=P:problem=kreska pseudotaktowa	!	!	!	!	!	!	!
2GG/	.	2GG/	.	1G/	.	1d\	i-	.	.
=61-	=61-	=61-	=61-	=61-	=61-	=61-	=61-	=61-	=61-
!LO:TX:t=P:problem=kreska pseudotaktowa	!	!	!	!	!	!	!	!LO:TX:t=P:problem=kreska pseudotaktowa	!
1D	.	1D	.	.	.	.	.	1A	-ma
!	!	!	!	!	!	!LO:TX:t=P:problem=kreska pseudotaktowa	!	!	!
.	.	.	.	4F#X/	i-	2d\	-ma	.	.
!	!	!	!	!LO:TX:t=P:problem=kreska pseudotaktowa	!	!	!	!	!
.	.	.	.	4E/	-ma	.	.	.	.
2D,<\	-ma	2D,<\	-ma	1F#X	sum-	1d	sum-	1A	sum-
!	!	!LO:TX:t=P:problem=kreska pseudotaktowa	!	!	!	!	!	!	!
2D\	sum-	2D\	sum-	.	.	.	.	.	.
=62-	=62-	=62-	=62-	=62-	=62-	=62-	=62-	=62-	=62-
0GG;	-mis.	0GG;	-mis.	0G;	-mis.	0d;	-mis.	0G;	-mis.
=63||-	=63||-	=63||-	=63||-	=63||-	=63||-	=63||-	=63||-	=63||-	=63||-
*M2/1	*	*M2/1	*	*M2/1	*	*M2/1	*	*M2/1	*
*met(C|)	*	*met(C|)	*	*met(C|)	*	*met(C|)	*	*met(C|)	*
!	!	!	!	!	!	!	!	!LO:LB:g=original	!
!	!	!	!	!	!	!	!	!LO:TX:t=P:problem=kreska pseudotaktowa	!
00r	.	00r	.	1D	al-	1r	.	00r	.
!	!	!	!	!LO:TX:t=P:problem=kreska pseudotaktowa	!	!	!	!	!
.	.	.	.	1A	.	1A	al-	.	.
=64-	=64-	=64-	=64-	=64-	=64-	=64-	=64-	=64-	=64-
.	.	.	.	1E	-le-	1e	-le-	.	.
*	*	*	*	*lig	*	*	*	*	*
.	.	.	.	1G	.	2.B/	.	.	.
!	!	!	!	!	!	!LO:TX:t=P:problem=kreska pseudotaktowa	!	!	!
.	.	.	.	.	.	4c/	.	.	.
=65-	=65-	=65-	=65-	=65-	=65-	=65-	=65-	=65-	=65-
!LO:TX:t=P:problem=kreska pseudotaktowa	!	!LO:TX:t=P:problem=kreska pseudotaktowa	!	!	!	!	!	!	!
1r	.	1r	.	1Fny	.	1d	.	1D	Al-
*	*	*	*	*Xlig	*	*	*	*	*
!	!	!	!	!	!	!	!	!LO:TX:t=P:problem=kreska pseudotaktowa	!
1AA	Al-	1AA	al-	1E	-lu-	1c	.	1A	-le-
=66-	=66-	=66-	=66-	=66-	=66-	=66-	=66-	=66-	=66-
!LO:TX:t=P:problem=kreska pseudotaktowa	!	!LO:TX:t=P:problem=kreska pseudotaktowa	!	!LO:TX:t=P:problem=brakujący dźwięk	!	!	!	!	!
1E	-le-	1E	-le-	1ryy	.	0B	-lu-	1E	.
!	!	!	!	!LO:TX:t=P:problem=kreska pseudotaktowa	!	!	!	!	!
2.BB/	-lu-	2.BB/	-lu-	1D	-ia	.	.	1G	.
!	!	!LO:TX:t=P:problem=kreska pseudotaktowa	!	!	!	!	!	!	!
4C/	.	4C/	.	.	.	.	.	.	.
=67-	=67-	=67-	=67-	=67-	=67-	=67-	=67-	=67-	=67-
2D,<\	-ia	2D,</	-ia	2r	.	2A/	-ia	1F	-lu-
*	*ij	*	*ij	*	*ij	*	*ij	*	*
!	!	!LO:TX:t=P:problem=kreska pseudotaktowa	!	!LO:TX:t=P:problem=kreska pseudotaktowa	!	!LO:TX:t=P:problem=kreska pseudotaktowa	!	!	!
2D\	Al-	2D/	al-	2A\	al-	2d\	al-	.	.
2AA/	-le-	2AA/	-le-	2A\	-le-	2d\	-le-	1E	.
!	!	!LO:TX:t=P:problem=kreska pseudotaktowa	!	!LO:TX:t=P:problem=kreska pseudotaktowa	!	!	!	!	!
2AA/	-lu-	2AA/	-lu-	2A\	-lu-	2c#X\	-lu-	.	.
=68-	=68-	=68-	=68-	=68-	=68-	=68-	=68-	=68-	=68-
0D;	-ia	0D;	-ia	0A;	-ia	0d;	-ia	0D;	-ia.
*	*Xij	*	*Xij	*	*Xij	*	*Xij	*	*
=-	=-	=-	=-	=-	=-	=-	=-	=-	=-
*-	*-	*-	*-	*-	*-	*-	*-	*-	*-
!!!system-decoration: [(s1,s2,s3,s4)][(s5)]
!!!RDF**kern: < = below
!!!RDF**kern: > = above
!!!ENC: Marta Chmielewska
!!!END: 2021-08-05
!!!ENC: Anastazja Marusiak
!!!END: 2021-07-13
!!!YEC: Copyright 2022 Narodowy Instytut Fryderyka Chopina (https://polishscores.org)
!!!YEM: Licence CC BY 4.0 (https://creativecommons.org/licenses/by/4.0)
